X:77
T:Sheebeag Sheemore
T:Si Bheag Si Mhor
M:3/4
L:1/4
R:waltz
K:D
d/e/|f>ed|d>ed|B2A|F2A|B/A/ B/c/ d|e>de|f2e|d2f|
B2e|A2d|F2E|D2f|B2e|A>dc|d3-|d2 d/e/:|
f>ed|e/d/ e/f/ a|b2a|f>ed|e2a|f2e|d2B|B2A|
F2E|D2f|B2e|A>fa|b/a/ g/f/ e/d/|e f/e/ d/c/|d3-|d2 d/e/:|
